X: 34843
T: Roaring Barmaid, The
R: jig
M: 6/8
K: Gmajor
|:d3 BdA|d3 BdA|d3 fdd|Add f3|
d3 BdA|d3 BdA|DEF ABd|ABd BAF:|
|:ABd f3|fef ABd|f3 fed|edB ABd|
f3 efd|edd fdd|edd Bdd|1 ABd BAF:|2 ABd BAf||

